X:2672
T:Polonäs efter Pehr Andersson
S:efter Pehr Andersson
B:Pehr Anderssons notbok, nr 53
B:http://www.smus.se/earkiv/fmk/browselarge.php?lang=sw&katalogid=Ma+1&bildnr=00019
O:Måstorp, Närke
R:Slängpolska
Z:Nils L
M:3/4
L:1/16
K:C
G2G2 c4 d4 | e2fe d4 g4 | c2B2 A4 d4 | f2e2 d8 |
G2G2 c4 d4 | e2fe d4 g4 | e2(de) f4 e4 | e2dc c8 ::
g2g2 a4 a4 | g2f2 e2d2 e2c2 | e2f2 g2a2 g2f2 | d4 Td8 |
g2g2 a4 a4 | g2f2 e2d2 e2c2 | f2e2 d4>c4 | c2dc c8 :|
(:musicend:)
(:music:)
